svg/color/stg.svg

<svg viewBox="0 0 117 117" fill="none" xmlns="http://www.w3.org/2000/svg">
<g clip-path="url(#clip0_1488_170142)">
<mask id="mask0_1488_170142" style="mask-type:luminance" maskUnits="userSpaceOnUse" x="0" y="0" width="117" height="117">
<path d="M116.3 0H0V116.3H116.3V0Z" fill="white"/>
</mask>
<g mask="url(#mask0_1488_170142)">
<mask id="mask1_1488_170142" style="mask-type:luminance" maskUnits="userSpaceOnUse" x="0" y="0" width="117" height="117">
<path d="M116.3 0H0V116.3H116.3V0Z" fill="white"/>
</mask>
<g mask="url(#mask1_1488_170142)">
<path d="M69.6999 4.60039L72.7999 11.9004C78.8999 26.1004 90.1999 37.5004 104.5 43.6004L111.8 46.7004C113.7 47.5004 115.2 48.7004 116.4 50.1004C112.8 24.2004 92.2999 3.70039 66.3999 0.100388C67.6999 1.20039 68.8999 2.70039 69.6999 4.60039ZM4.59991 46.6004L11.8999 43.5004C26.0999 37.4004 37.4999 26.1004 43.5999 11.8004L46.6999 4.50038C47.3999 2.70038 48.5999 1.10039 50.0999 -0.0996094C24.1999 3.50039 3.69991 24.0004 0.0999069 49.9004C1.19991 48.6004 2.69991 47.4004 4.59991 46.6004ZM111.7 69.7004L104.4 72.8004C90.1999 78.9004 78.7999 90.2004 72.6999 104.5L69.5999 111.7C68.8999 113.5 67.6999 115.1 66.1999 116.3C92.0999 112.7 112.6 92.2004 116.2 66.3004C115.1 67.8004 113.5 69.0004 111.7 69.7004ZM46.5999 111.7L43.4999 104.5C37.3999 90.3004 26.0999 78.9004 11.7999 72.8004L4.4999 69.7004C2.6999 69.0004 1.0999 67.8004 -0.100098 66.3004C3.4999 92.2004 23.9999 112.7 49.8999 116.3C48.4999 115.1 47.3999 113.5 46.5999 111.7Z" fill="#999999"/>
</g>
<path d="M31.8 52.5008L35.4 51.0008C42.4 48.0008 48 42.4008 51 35.4008L52.5 31.8008C54.6 26.8008 61.7001 26.8008 63.9001 31.8008L65.4001 35.4008C68.4001 42.4008 74 48.0008 81 51.0008L84.6001 52.5008C89.6001 54.6008 89.6001 61.7008 84.6001 63.9008L81 65.4008C74 68.4008 68.4001 74.0008 65.4001 81.0008L63.9001 84.6008C61.8001 89.6008 54.7 89.6008 52.5 84.6008L51 81.0008C48 74.0008 42.4 68.4008 35.4 65.4008L31.8 63.9008C26.8 61.7008 26.8 54.6008 31.8 52.5008Z" fill="#010202"/>
</g>
</g>
<defs>
<clipPath id="clip0_1488_170142">
<rect width="116.3" height="116.3" fill="white"/>
</clipPath>
</defs>
</svg>

<svg xmlns="http://www.w3.org/2000/svg" fill="none" viewBox="0 0 117 117"><g clip-path="url(#stg_svg-a)"><mask id="stg_svg-b" width="117" height="117" x="0" y="0" maskUnits="userSpaceOnUse" style="mask-type:luminance"><path fill="#fff" d="M116.3 0H0v116.3h116.3z"/></mask><g mask="url(#stg_svg-b)"><mask id="stg_svg-c" width="117" height="117" x="0" y="0" maskUnits="userSpaceOnUse" style="mask-type:luminance"><path fill="#fff" d="M116.3 0H0v116.3h116.3z"/></mask><g mask="url(#stg_svg-c)"><path fill="#999" d="m69.7 4.6 3.1 7.3c6.1 14.2 17.4 25.6 31.7 31.7l7.3 3.1c1.9.8 3.4 2 4.6 3.4-3.6-25.9-24.1-46.4-50-50 1.3 1.1 2.5 2.6 3.3 4.5m-65.1 42 7.3-3.1c14.2-6.1 25.6-17.4 31.7-31.7l3.1-7.3c.7-1.8 1.9-3.4 3.4-4.6C24.2 3.5 3.7 24 .1 49.9c1.1-1.3 2.6-2.5 4.5-3.3m107.1 23.1-7.3 3.1c-14.2 6.1-25.6 17.4-31.7 31.7l-3.1 7.2c-.7 1.8-1.9 3.4-3.4 4.6 25.9-3.6 46.4-24.1 50-50-1.1 1.5-2.7 2.7-4.5 3.4m-65.1 42-3.1-7.2c-6.1-14.2-17.4-25.6-31.7-31.7l-7.3-3.1c-1.8-.7-3.4-1.9-4.6-3.4 3.6 25.9 24.1 46.4 50 50-1.4-1.2-2.5-2.8-3.3-4.6"/></g><path fill="#010202" d="m31.8 52.5 3.6-1.5c7-3 12.6-8.6 15.6-15.6l1.5-3.6c2.1-5 9.2-5 11.4 0l1.5 3.6C68.4 42.4 74 48 81 51l3.6 1.5c5 2.1 5 9.2 0 11.4L81 65.4c-7 3-12.6 8.6-15.6 15.6l-1.5 3.6c-2.1 5-9.2 5-11.4 0L51 81c-3-7-8.6-12.6-15.6-15.6l-3.6-1.5c-5-2.2-5-9.3 0-11.4"/></g></g><defs><clipPath id="stg_svg-a"><path fill="#fff" d="M0 0h116.3v116.3H0z"/></clipPath></defs></svg>
